rospo-icon-theme-classic-common/24x24/apps/stride.svg

<svg height="24" viewBox="0 0 24 24" width="24" xmlns="http://www.w3.org/2000/svg"><g fill-rule="evenodd"><path d="m8.7902315 3.4999989c-.426602.0000423-.77242.3422724-.772463.7644475 0 3.468644-1.1473904 5.7818936-1.8114654 6.7950536-.3762945.574101-.663786.877697-1.1164506 1.092921-.4526641.215224-1.1478979.34863-2.3173894.34863-.4266021.000042-.7724207.342273-.7724631.764448v6.470053c.0000427.422175.3458612.764406.7724631.764448 4.2123465 0 8.0349289-1.846001 10.1302809-5.042816 2.057708-3.139383 2.597256-6.9478745 2.597256-11.1927376-.000043-.4221753-.345861-.7644055-.772463-.7644475z" opacity=".2"/><path d="m8.7902315 2.9999997c-.426602.0000423-.77242.3422724-.772463.7644475 0 3.468644-1.1473904 5.7818936-1.8114654 6.7950528-.3762945.574101-.663786.877697-1.1164506 1.092921-.4526641.215224-1.1478979.34863-2.3173894.34863-.4266021.000042-.7724207.342273-.7724631.764448v6.470053c.0000427.422175.3458612.764406.7724631.764448 4.2123465 0 8.0349289-1.846001 10.1302809-5.042816 2.057708-3.139383 2.597256-6.9478737 2.597256-11.1927368-.000043-.4221753-.345861-.7644055-.772463-.7644475z" fill="#115ccc"/><path d="m8.7910156 3c-.426602.0000423-.7733945.3414968-.7734375.7636719 0 3.468644-1.1464718 5.7817626-1.8105469 6.7949221-.3762945.574101-.6645228.878526-1.1171874 1.09375-.4526641.215224-1.1469148.349609-2.3164063.349609-.4266021.000042-.7733951.341497-.7734375.763672v.5c.0000424-.422175.3468354-.76363.7734375-.763672 1.1694915 0 1.8637422-.134385 2.3164063-.349609.4526646-.215224.7408929-.519649 1.1171874-1.09375.6640751-1.01316 1.8105469-3.3262781 1.8105469-6.7949221.000043-.4221751.3468355-.7636296.7734375-.7636719h5.9355464c.41258.0000406.743877.3216674.765626.7246094.001497-.1543725.007812-.3053816.007812-.4609375-.000043-.4221753-.346835-.7636299-.773438-.7636719z" fill="#fff" opacity=".1"/></g><path d="m8.780736 3.4999992c-.5760877.0002541-.9534846.606791-.7020915 1.1283728l6.9336985 15.429023c.130632.270879.403635.442796.702853.442605h6.504828c.575558-.000528.952691-.60623.702091-1.127606l-7.434088-15.4297904c-.130513-.27063-.403149-.4425019-.702092-.4426044z" opacity=".2"/><path d="m8.780736 3c-.5760877.0002541-.9534846.606791-.7020915 1.1283728l6.9336985 15.4290222c.130632.270879.403635.442796.702853.442605h6.504828c.575558-.000528.952691-.60623.702091-1.127606l-7.434088-15.4297896c-.130513-.27063-.403149-.4425019-.702092-.4426044z" fill="#3387f5"/><path d="m8.78125 3c-.552084.0002435-.9160275.5570162-.7246094 1.0625.0963085-.3107629.3598941-.5623391.7246094-.5625h6.003906c.298943.0001025.572612.1727294.703125.4433594l7.433594 15.4296876c.0105.02185.01316.04431.02148.06641.05657-.180466.07082-.374365-.02148-.566406l-7.433594-15.4296916c-.130513-.27063-.404182-.4432569-.703125-.4433594z" fill="#fff" opacity=".2"/></svg>

<svg xmlns="http://www.w3.org/2000/svg" width="24" height="24" version="1.1" viewBox="0 0 24 24">
 <path d="m 8.7902315,3.4999989 c -0.426602,4.23e-5 -0.77242,0.3422724 -0.772463,0.7644475 0,3.468644 -1.1473904,5.7818936 -1.8114654,6.7950536 -0.3762945,0.574101 -0.663786,0.877697 -1.1164506,1.092921 -0.4526641,0.215224 -1.1478979,0.34863 -2.3173894,0.34863 C 2.345861,12.501093 2.0000424,12.843324 2,13.265499 l 0,6.470053 C 2.0000427,20.157727 2.3458612,20.499958 2.7724631,20.5 6.9848096,20.5 10.807392,18.653999 12.902744,15.457184 14.960452,12.317801 15.5,8.5093095 15.5,4.2644464 15.499957,3.8422711 15.154139,3.5000409 14.727537,3.4999989 Z" style="opacity:0.2;fill-rule:evenodd"/>
 <path style="fill:#115ccc;fill-rule:evenodd" d="m 8.7902315,2.9999997 c -0.426602,4.23e-5 -0.77242,0.3422724 -0.772463,0.7644475 0,3.468644 -1.1473904,5.7818936 -1.8114654,6.7950528 -0.3762945,0.574101 -0.663786,0.877697 -1.1164506,1.092921 -0.4526641,0.215224 -1.1478979,0.34863 -2.3173894,0.34863 C 2.345861,12.001093 2.0000424,12.343324 2,12.765499 l 0,6.470053 C 2.0000427,19.657727 2.3458612,19.999958 2.7724631,20 6.9848096,20 10.807392,18.153999 12.902744,14.957184 14.960452,11.817801 15.5,8.0093103 15.5,3.7644472 15.499957,3.3422719 15.154139,3.0000417 14.727537,2.9999997 Z"/>
 <path style="opacity:0.1;fill:#ffffff;fill-rule:evenodd" d="m 8.7910156,3 c -0.426602,4.23e-5 -0.7733945,0.3414968 -0.7734375,0.7636719 0,3.468644 -1.1464718,5.7817626 -1.8105469,6.7949221 C 5.8307367,11.132695 5.5425084,11.43712 5.0898438,11.652344 4.6371797,11.867568 3.942929,12.001953 2.7734375,12.001953 2.3468354,12.001995 2.0000424,12.34345 2,12.765625 l 0,0.5 c 4.24e-5,-0.422175 0.3468354,-0.76363 0.7734375,-0.763672 1.1694915,0 1.8637422,-0.134385 2.3164063,-0.349609 C 5.5425084,11.93712 5.8307367,11.632695 6.2070312,11.058594 6.8711063,10.045434 8.0175781,7.7323159 8.0175781,4.2636719 8.0176211,3.8414968 8.3644136,3.5000423 8.7910156,3.5 l 5.9355464,0 c 0.41258,4.06e-5 0.743877,0.3216674 0.765626,0.7246094 C 15.493685,4.0702369 15.5,3.9192278 15.5,3.7636719 15.499957,3.3414966 15.153165,3.000042 14.726562,3 L 8.7910156,3 Z"/>
 <path d="M 8.780736,3.4999992 C 8.2046483,3.5002533 7.8272514,4.1067902 8.0786445,4.628372 l 6.9336985,15.429023 c 0.130632,0.270879 0.403635,0.442796 0.702853,0.442605 l 6.504828,0 c 0.575558,-5.28e-4 0.952691,-0.60623 0.702091,-1.127606 L 15.488027,3.9426036 C 15.357514,3.6719736 15.084878,3.5001017 14.785935,3.4999992 Z" style="opacity:0.2"/>
 <path style="fill:#3387f5" d="M 8.780736,3 C 8.2046483,3.0002541 7.8272514,3.606791 8.0786445,4.1283728 L 15.012343,19.557395 C 15.142975,19.828274 15.415978,20.000191 15.715196,20 l 6.504828,0 c 0.575558,-5.28e-4 0.952691,-0.60623 0.702091,-1.127606 L 15.488027,3.4426044 C 15.357514,3.1719744 15.084878,3.0001025 14.785935,3 Z"/>
 <path style="opacity:0.2;fill:#ffffff" d="M 8.78125,3 C 8.229166,3.0002435 7.8652225,3.5570162 8.0566406,4.0625 8.1529491,3.7517371 8.4165347,3.5001609 8.78125,3.5 l 6.003906,0 c 0.298943,1.025e-4 0.572612,0.1727294 0.703125,0.4433594 l 7.433594,15.4296876 c 0.0105,0.02185 0.01316,0.04431 0.02148,0.06641 0.05657,-0.180466 0.07082,-0.374365 -0.02148,-0.566406 L 15.488281,3.4433594 C 15.357768,3.1727294 15.084099,3.0001025 14.785156,3 L 8.78125,3 Z"/>
</svg>
